src/images/icons/employee-case-apple.svg

<svg width="108" height="123" viewBox="0 0 108 123" fill="none" xmlns="http://www.w3.org/2000/svg">
<path d="M55.062 46.1764L57.3953 42.583C57.3953 42.583 62.1926 37.7785 67.4133 37.0707C78.0517 35.6282 86.5749 37.4204 92.523 33.8291C95.7386 31.8876 97.4105 30.5177 99.7057 27.5443C101.399 25.35 106 18.2292 106 18.2292C106 18.2292 98.4229 21.7019 95.1043 21.035C91.7073 20.3523 90.1515 18.171 86.6871 18.2292C83.3885 18.2847 81.8798 20.0905 78.7188 21.035C75.9892 21.8505 74.1673 21.4999 71.6484 22.8306C69.1767 24.1364 68.6593 26.1075 66.2614 27.5443C63.9643 28.9205 62.2677 28.4072 60.3132 30.2378C57.5356 32.8393 58.2366 35.8238 56.8577 39.371C56.0478 41.4543 54.7251 44.1939 53.2589 46.3426" stroke="#3C3D75"/>
<path d="M81.9473 36.2699C81.9473 36.2699 73.0433 33.3021 66.8226 34.5463C65.0869 34.8934 63.447 35.927 61.7335 37.2509C59.935 38.6404 57.3214 42.6439 57.3214 42.6439" stroke="#3C3D75"/>
<path d="M51.1803 46.2798C51.1803 46.2798 48.2708 39.4815 43.2771 36.6551C33.1012 30.8956 23.7569 29.2627 19.1931 23.226C16.7259 19.9627 15.5889 17.9013 14.4697 13.9663C13.6438 11.0624 11.8697 2.00116 11.8697 2.00116C11.8697 2.00116 18.1288 8.57628 21.7547 9.24336C25.4662 9.92618 27.9214 8.34911 31.4015 9.80851C34.7151 11.1981 35.5109 13.6343 38.3259 15.8673C40.7568 17.7955 42.7411 18.1774 44.7506 20.5416C46.7224 22.8614 46.4488 25.064 48.2932 27.4864C50.06 29.8069 51.9833 29.9736 53.2199 32.615C54.9774 36.3689 53.0619 39.1039 53.0225 43.2487C53.0139 44.1474 53.095 45.1868 53.2317 46.2798" stroke="#3C3D75"/>
<path d="M28.9022 29.97C28.9022 29.97 39.1068 30.568 44.8952 34.341C46.5102 35.3938 47.7508 37.102 48.9486 39.1336C50.2058 41.2659 51.2306 46.3714 51.2306 46.3714" stroke="#3C3D75"/>
<path d="M24.4992 44.7338C32.3387 41.6258 43.9282 46.3567 52.6278 46.3567C61.9588 46.3567 72.2817 38.8737 85.715 46.3569C99.1482 53.8402 97.0746 79.9847 92.2062 92.6966C87.3378 105.409 83.7315 109.826 79.4942 115.236C76.5435 119.003 72.913 121.727 67.7741 121.727C62.6353 121.727 59.4334 119.521 52.8083 119.473C45.7281 119.422 41.629 121.727 36.7959 121.727C31.9629 121.727 29.0968 118.726 25.9417 115.236C22.7865 111.746 15.9344 100.17 14.582 89.2611C14.582 89.2611 20.6399 93.2376 27.3842 91.0738C34.1284 88.9101 33.6134 82.7022 33.7614 82.5999C34.2795 82.2422 36.0558 82.748 38.0542 79.0473C40.2005 73.6444 36.6479 71.72 36.7959 71.424C38.8565 69.7732 38.8348 66.9639 38.4982 65.2809C38.1282 63.4306 37.1078 61.4705 33.7614 60.174C33.7614 59.8779 34.7236 54.623 28.3585 51.9586C23.6216 50.2563 16.2192 53.2958 15.3033 54.11C16.4491 50.4801 20.2254 46.4281 24.4992 44.7338Z" stroke="#3C3D75"/>
<path d="M15.3032 54.0198C15.3032 54.0198 22.9386 53.5699 24.3943 57.5607C25.2583 59.9295 24.3943 62.5855 24.3943 62.5855C24.3943 62.5855 26.4447 62.5855 27.2656 66.2465C27.7968 68.6154 25.6146 70.1946 25.6146 70.1946C25.6146 70.1946 28.0039 71.7021 27.2656 74.9324C26.6258 77.7319 23.5329 78.5215 23.5329 78.5215C23.5329 78.5215 26.4381 81.7397 23.5329 86.5661C21.2536 90.3526 14.6722 89.2708 14.6722 89.2708" stroke="#3C3D75"/>
</svg>

<svg xmlns="http://www.w3.org/2000/svg" width="108" height="123" fill="none"><path stroke="#3C3D75" d="M55.062 46.176l2.333-3.593s4.798-4.804 10.018-5.512c10.639-1.443 19.162.35 25.11-3.242 3.216-1.941 4.888-3.311 7.183-6.285C101.399 25.35 106 18.23 106 18.23s-7.577 3.473-10.896 2.806c-3.397-.683-4.953-2.864-8.417-2.806-3.299.056-4.807 1.861-7.968 2.806-2.73.816-4.552.465-7.07 1.796-2.472 1.305-2.99 3.277-5.388 4.713-2.297 1.377-3.993.863-5.948 2.694-2.777 2.601-2.076 5.586-3.455 9.133-.81 2.083-2.133 4.823-3.6 6.972"/><path stroke="#3C3D75" d="M81.947 36.27s-8.904-2.968-15.124-1.724c-1.736.347-3.376 1.381-5.09 2.705-1.798 1.39-4.412 5.393-4.412 5.393"/><path stroke="#3C3D75" d="M51.18 46.28s-2.91-6.799-7.903-9.625c-10.176-5.76-19.52-7.392-24.084-13.429-2.467-3.263-3.604-5.325-4.723-9.26-.826-2.904-2.6-11.965-2.6-11.965s6.259 6.575 9.885 7.242c3.711.683 6.166-.894 9.646.566 3.314 1.39 4.11 3.825 6.925 6.058 2.43 1.928 4.415 2.31 6.425 4.675 1.971 2.32 1.698 4.522 3.542 6.944 1.767 2.32 3.69 2.488 4.927 5.129 1.757 3.754-.158 6.489-.197 10.634-.01.898.072 1.938.209 3.03"/><path stroke="#3C3D75" d="M28.902 29.97s10.205.598 15.993 4.371c1.615 1.053 2.856 2.761 4.054 4.793 1.257 2.132 2.282 7.237 2.282 7.237"/><path stroke="#3C3D75" d="M24.5 44.734c7.839-3.108 19.428 1.623 28.128 1.623 9.33 0 19.654-7.483 33.087 0 13.433 7.483 11.36 33.628 6.491 46.34-4.868 12.712-8.475 17.129-12.712 22.539-2.95 3.767-6.581 6.491-11.72 6.491s-8.34-2.206-14.966-2.254c-7.08-.051-11.179 2.254-16.012 2.254s-7.7-3.001-10.854-6.491c-3.155-3.49-10.008-15.066-11.36-25.975 0 0 6.058 3.977 12.802 1.813 6.744-2.164 6.23-8.372 6.377-8.474.518-.358 2.295.148 4.293-3.553 2.146-5.403-1.406-7.327-1.258-7.623 2.06-1.65 2.039-4.46 1.702-6.143-.37-1.85-1.39-3.81-4.737-5.107 0-.296.963-5.551-5.403-8.215-4.736-1.703-12.139 1.337-13.055 2.151 1.146-3.63 4.922-7.682 9.196-9.376z"/><path stroke="#3C3D75" d="M15.303 54.02s7.636-.45 9.091 3.54c.864 2.37 0 5.026 0 5.026s2.05 0 2.872 3.66c.53 2.37-1.651 3.949-1.651 3.949s2.389 1.507 1.65 4.737c-.64 2.8-3.732 3.59-3.732 3.59s2.905 3.218 0 8.044c-2.28 3.787-8.86 2.705-8.86 2.705"/></svg>
